X:1
T:A Little Human Kindness
T:A Little Human Kindness
T:Charles Hutchinson Gabriel
T:Frona Scott, 1920
T:Public Domain Courtesy of the Cyber Hymnal™
T:Public Domain Courtesy of the Cyber Hymnal™
C:Charles Hutchinson Gabriel
Z:Public Domain
Z:Courtesy of the Cyber Hymnal™
%%score ( 1 2 ) ( 3 4 )
L:1/8
Q:1/4=86
M:4/4
K:Eb
V:1 treble 
V:2 treble 
V:3 bass 
V:4 bass 
V:1
 E | [EG][EG][EG][FA] [GB][GB][GB][GB] | [Ac][ce][Bd][Ac] [GB]3 [Gc] | %3
w: 1.~By|mak- ing some- one hap- py as we|pass a- long life’s way, We|
w: 2.~So|ma- ny wea- ry pil- grims toil- ing|on- ward up the height, Are|
w: 3.~Keep|all the hope- fires light- ed by the|torch of love di- vine; As|
 [DA][DA][DA][FB] [EG][EG][EG][^CB] | [DF][DB][Ec][Fd] [DB]3 E | %5
w: bring a bit of Hea- ven to the|long- est, dark- est day; The|
w: long- ing for a friend- ly word, ere|fall the shades of night; O|
w: bea- cons thro’ earth’s dark- est val- leys|ev- er let them shine. Some-|
 [EG][EG][EG][FA] [GB][GB][GB][GB] | [Ac][ce][Bd][Ac] [GB]3 [GB] | %7
w: world is full of sha- dows, full of|sor- row, grief and woe, And|
w: lend a hand to help them, haste to|speak a word of cheer, And|
w: where be- yond the sun- set, in a|land su- preme- ly blest, We’ll|
 [F=A][F^G][EA][DB] [Fc][F=B][Fc][Fe] | [Fd]2 [Ec]2 [DB]3 ||"^Refrain" [AB] | %10
w: snares are set be- fore us ev- ery-|where we go.||
w: gloom- y clouds will bright- en when the|day is drear.|A|
w: find that hu- man kind- ness paved the|way to rest.||
 [Ge][Gd][Gc][GB] [Gc][GB][FA][EG] | [DB][B,D][B,D][B,D] [B,D]3 [AB] | %12
w: ||
w: lit- tle hu- man kind- ness brings a|bit of Hea- ven near, A|
w: ||
 [Ad][Ac][GB][FA] [Ac][GB][FA][DF] | B2 B2 [GB]3 [GB] | [Ge][Gd][Gc][GB] [Gc][GB][FA][EG] | %15
w: |||
w: lit- tle hu- man kind- ness drives a-|way our fear. A|lit- tle hu- man kind- ness makes the|
w: |||
 [FA][EG][DF]E [Ec]3 [Fc] | [FB][FB][Fc][Fd] [Ee][EB][Ec][EA] | [EG]2 [DF]2 E3 |] %18
w: |||
w: souls of men a- kin, And|brings the joy of vic- tory to a|world of sin.|
w: |||
V:2
 E | x8 | x8 | x8 | x7 E | x8 | x8 | x8 | x7 || x | x8 | x8 | x8 | (EE) (AA) x4 | x8 | x3 E x4 | %16
 x8 | x4 E3 |] %18
V:3
 [E,G,] | [E,B,][E,B,][E,B,][E,B,] [E,E][E,E][E,E][E,E] | [A,E][A,E][A,E][A,E] [E,E]3 [E,E] | %3
w: ~|~ ~ ~ ~ ~ ~ ~ ~|~ ~ ~ ~ ~ ~|
 [F,B,][F,B,][F,B,][D,B,] [E,B,][E,B,][E,B,][=E,B,] | [F,B,][F,B,][F,=A,][F,A,] [B,,B,]3 [E,G,] | %5
w: ~ ~ ~ ~ ~ ~ ~ ~|~ ~ ~ ~ ~ ~|
 [E,B,][E,B,][E,B,][E,B,] [E,E][E,E][E,E][E,E] | [A,E][A,E][A,E][A,E] [E,E]3 [E,E] | %7
w: ~ ~ ~ ~ ~ ~ ~ ~|~ ~ ~ ~ ~ ~|
 [F,E][F,=B,][F,C][F,_B,] [F,=A,][F,^G,][F,A,][F,C] | [F,B,]2 [F,=A,]2 [B,,B,]3 || B, | %10
w: ~ ~ ~ ~ ~ ~ ~ ~|~ ~ ~|~|
 [E,B,][E,B,][E,E][E,E] [E,E][E,B,][E,B,][E,B,] | [F,A,][B,,A,][D,A,][F,A,] [B,,A,B,]3 B, | %12
w: ~ ~ ~ ~ ~ ~ ~ ~|~ ~ ~ ~ ~ ~|
 [B,,B,][B,,B,][B,,B,][B,,B,] [B,,B,][B,,B,][B,,B,][A,B,] | [G,E][G,E][F,D][B,,D] [E,E]3 [E,C] | %14
w: ~ ~ ~ ~ ~ ~ ~ ~|~ our doubt and fear, *|
 [E,B,][E,B,][E,E][E,E] [E,E][E,B,][E,B,][E,B,] | [E,B,][E,B,][F,B,][G,B,] A,3 [=A,E] | %16
w: ||
 [B,D][B,D][=A,C][_A,B,] [G,B,][G,E][A,E][A,C] | B,2 [B,,A,]2 [E,G,]3 |] %18
w: ||
V:4
 x | x8 | x8 | x8 | x8 | x8 | x8 | x8 | x7 || B, | x8 | x7 B, | x8 | x8 | x8 | x4 =A,3 x | x8 | %17
 B,2 x5 |] %18

